build/img/landings/target/tar-yl-2.svg

<svg width="1248" height="429" viewBox="0 0 1248 429" fill="none" xmlns="http://www.w3.org/2000/svg">
<path d="M1314.7 856.3C1314 853.2 1313.3 850 1312.7 846.9H900.498V105.401C900.498 100.401 898.398 96.4014 895.798 96.4014C893.198 96.4014 891.098 100.401 891.098 105.401V846.8C891.098 849.9 891.098 853.1 891.098 856.2C894.198 856.2 897.398 856.2 900.498 856.2H1314.7V856.3Z" fill="#3FD1FF"/>
<path d="M1314.7 857.8H891.098C890.298 857.8 889.598 857.1 889.598 856.3V105.401C889.598 99.4014 892.298 94.9014 895.798 94.9014C899.298 94.9014 901.998 99.4014 901.998 105.401V845.3H1312.7C1313.4 845.3 1314 845.8 1314.2 846.5C1314.8 849.4 1315.4 852.5 1316.2 855.9C1316.3 856.3 1316.2 856.8 1315.9 857.2C1315.5 857.5 1315.1 857.8 1314.7 857.8ZM892.498 854.8H1312.8C1312.3 852.5 1311.9 850.4 1311.4 848.4H900.398C899.598 848.4 898.898 847.7 898.898 846.9V105.401C898.898 100.801 896.998 97.9014 895.698 97.9014C894.398 97.9014 892.498 100.801 892.498 105.401V854.8Z" fill="black"/>
<path d="M893.7 243.201C898.7 243.201 902.7 241.101 902.7 238.501C902.7 235.901 898.7 233.801 893.7 233.801H686C685.9 180.101 685.9 126.401 685.8 72.7008H893.7C898.7 72.7008 902.7 70.6008 902.7 68.0008C902.7 65.4008 898.7 63.3008 893.7 63.3008C821.1 63.3008 748.6 63.3008 676 63.3008C676.2 120.201 676.3 177.001 676.5 233.901H554.5C549.5 233.901 545.5 236.001 545.5 238.601C545.5 241.201 549.5 243.301 554.5 243.301H676.5V408.501C676.6 411.601 676.8 414.801 676.9 417.901C679.8 417.901 682.7 417.901 685.6 417.901H893.7C898.7 417.901 902.7 415.801 902.7 413.201C902.7 410.601 898.7 408.501 893.7 408.501H686V243.201H893.7Z" fill="#3FD1FF"/>
<path d="M893.7 419.401H676.9C676.1 419.401 675.4 418.801 675.4 418.001L675 408.601V244.801H554.5C548.5 244.801 544 242.101 544 238.601C544 235.101 548.5 232.401 554.5 232.401H675L674.5 63.4014C674.5 63.0014 674.7 62.6014 674.9 62.3014C675.2 62.0014 675.6 61.9014 676 61.9014H893.7C899.7 61.9014 904.2 64.6014 904.2 68.1014C904.2 71.6014 899.7 74.3014 893.7 74.3014H687.3L687.5 232.401H893.7C899.7 232.401 904.2 235.101 904.2 238.601C904.2 242.101 899.7 244.801 893.7 244.801H687.5V407.001H893.7C899.7 407.001 904.2 409.701 904.2 413.201C904.2 416.701 899.7 419.401 893.7 419.401ZM678.4 416.401H893.8C898.4 416.401 901.3 414.501 901.3 413.201C901.3 411.901 898.4 410.001 893.8 410.001H686.1C685.3 410.001 684.6 409.301 684.6 408.501V243.201C684.6 242.401 685.3 241.701 686.1 241.701H893.8C898.4 241.701 901.3 239.801 901.3 238.501C901.3 237.201 898.4 235.301 893.8 235.301H686.1C685.3 235.301 684.6 234.601 684.6 233.801L684.4 72.7014C684.4 72.3014 684.6 71.9014 684.8 71.6014C685.1 71.3014 685.5 71.2014 685.9 71.2014H893.8C898.4 71.2014 901.3 69.3014 901.3 68.0014C901.3 66.7014 898.4 64.8014 893.8 64.8014H677.7L678.2 233.801C678.2 234.201 678 234.601 677.8 234.901C677.5 235.201 677.1 235.301 676.7 235.301H554.7C550.1 235.301 547.2 237.201 547.2 238.501C547.2 239.801 550.1 241.701 554.7 241.701H676.7C677.5 241.701 678.2 242.401 678.2 243.201V408.401L678.4 416.401Z" fill="black"/>
<path d="M552.999 114.401H1.5V362.601H552.999V114.401Z" fill="#3FD1FF"/>
<path d="M552.999 364.101H1.5C0.7 364.101 0 363.401 0 362.601V114.401C0 113.601 0.7 112.901 1.5 112.901H552.999C553.799 112.901 554.499 113.601 554.499 114.401V362.601C554.499 363.401 553.799 364.101 552.999 364.101ZM3 361.101H551.499V115.901H3V361.101Z" fill="black"/>
<path d="M1040.6 1.5H751.199V131.7H1040.6V1.5Z" fill="#349948"/>
<path d="M1040.6 133.2H751.199C750.399 133.2 749.699 132.5 749.699 131.7V1.5C749.699 0.7 750.399 0 751.199 0H1040.6C1041.4 0 1042.1 0.7 1042.1 1.5V131.7C1042.1 132.5 1041.4 133.2 1040.6 133.2ZM752.699 130.2H1039.1V3H752.699V130.2Z" fill="black"/>
<path d="M1040.5 173.401H751.098V303.601H1040.5V173.401Z" fill="#349948"/>
<path d="M1040.4 305.101H751C750.2 305.101 749.5 304.401 749.5 303.601V173.401C749.5 172.601 750.2 171.901 751 171.901H1040.4C1041.2 171.901 1041.9 172.601 1041.9 173.401V303.601C1041.9 304.401 1041.3 305.101 1040.4 305.101ZM752.6 302.101H1038.9V174.901H752.5V302.101H752.6Z" fill="black"/>
<path d="M1040.5 345H751.098V475.2H1040.5V345Z" fill="#349948"/>
<path d="M1040.4 476.7H751C750.2 476.7 749.5 476 749.5 475.2V345C749.5 344.2 750.2 343.5 751 343.5H1040.4C1041.2 343.5 1041.9 344.2 1041.9 345V475.2C1041.9 476 1041.3 476.7 1040.4 476.7ZM752.6 473.7H1038.9V346.5H752.5V473.7H752.6Z" fill="black"/>
<path d="M468.4 230.1H66.5C61.5 230.1 57.5 226.1 57.5 221.1C57.5 216.1 61.5 212.1 66.5 212.1H468.4C473.4 212.1 477.4 216.1 477.4 221.1C477.4 226.1 473.4 230.1 468.4 230.1Z" fill="white"/>
<path d="M468.4 231.6H66.5C60.7 231.6 56 226.9 56 221.1C56 215.3 60.7 210.6 66.5 210.6H468.4C474.2 210.6 478.9 215.3 478.9 221.1C478.9 226.9 474.2 231.6 468.4 231.6ZM66.5 213.6C62.4 213.6 59 217 59 221.1C59 225.2 62.4 228.6 66.5 228.6H468.4C472.5 228.6 475.9 225.2 475.9 221.1C475.9 217 472.5 213.6 468.4 213.6H66.5Z" fill="black"/>
<path d="M257.8 277.6H66.5C61.5 277.6 57.5 273.6 57.5 268.6C57.5 263.6 61.5 259.6 66.5 259.6H257.8C262.8 259.6 266.8 263.6 266.8 268.6C266.8 273.6 262.8 277.6 257.8 277.6Z" fill="white"/>
<path d="M257.8 279.1H66.5C60.7 279.1 56 274.4 56 268.6C56 262.8 60.7 258.1 66.5 258.1H257.8C263.6 258.1 268.3 262.8 268.3 268.6C268.3 274.4 263.6 279.1 257.8 279.1ZM66.5 261.1C62.4 261.1 59 264.5 59 268.6C59 272.7 62.4 276.1 66.5 276.1H257.8C261.9 276.1 265.3 272.7 265.3 268.6C265.3 264.5 261.9 261.1 257.8 261.1H66.5Z" fill="black"/>
</svg>

<svg width="1248" height="429" fill="none" xmlns="http://www.w3.org/2000/svg"><path d="M1314.7 856.3c-.7-3.1-1.4-6.3-2-9.4H900.498V105.401c0-5-2.1-9-4.7-9s-4.7 4-4.7 9V856.2H1314.7v.1z" fill="#3FD1FF"/><path d="M1314.7 857.8H891.098c-.8 0-1.5-.7-1.5-1.5V105.401c0-6 2.7-10.5 6.2-10.5s6.2 4.5 6.2 10.5V845.3H1312.7c.7 0 1.3.5 1.5 1.2.6 2.9 1.2 6 2 9.4.1.4 0 .9-.3 1.3-.4.3-.8.6-1.2.6zm-422.202-3H1312.8c-.5-2.3-.9-4.4-1.4-6.4H900.398c-.8 0-1.5-.7-1.5-1.5V105.401c0-4.6-1.9-7.5-3.2-7.5-1.3 0-3.2 2.9-3.2 7.5V854.8z" fill="#000"/><path d="M893.7 243.201c5 0 9-2.1 9-4.7s-4-4.7-9-4.7H686c-.1-53.7-.1-107.4-.2-161.1h207.9c5 0 9-2.1 9-4.7s-4-4.7-9-4.7H676c.2 56.9.3 113.7.5 170.6h-122c-5 0-9 2.1-9 4.7s4 4.7 9 4.7h122v165.2c.1 3.1.3 6.3.4 9.4h216.8c5 0 9-2.1 9-4.7s-4-4.7-9-4.7H686v-165.3h207.7z" fill="#3FD1FF"/><path d="M893.7 419.401H676.9c-.8 0-1.5-.6-1.5-1.4l-.4-9.4v-163.8H554.5c-6 0-10.5-2.7-10.5-6.2s4.5-6.2 10.5-6.2H675l-.5-169c0-.4.2-.8.4-1.1.3-.3.7-.4 1.1-.4h217.7c6 0 10.5 2.7 10.5 6.2s-4.5 6.2-10.5 6.2H687.3l.2 158.1h206.2c6 0 10.5 2.7 10.5 6.2s-4.5 6.2-10.5 6.2H687.5v162.2h206.2c6 0 10.5 2.7 10.5 6.2s-4.5 6.2-10.5 6.2zm-215.3-3h215.4c4.6 0 7.5-1.9 7.5-3.2 0-1.3-2.9-3.2-7.5-3.2H686.1c-.8 0-1.5-.7-1.5-1.5v-165.3c0-.8.7-1.5 1.5-1.5h207.7c4.6 0 7.5-1.9 7.5-3.2 0-1.3-2.9-3.2-7.5-3.2H686.1c-.8 0-1.5-.7-1.5-1.5l-.2-161.1c0-.4.2-.8.4-1.1.3-.3.7-.4 1.1-.4h207.9c4.6 0 7.5-1.9 7.5-3.2 0-1.3-2.9-3.2-7.5-3.2H677.7l.5 169c0 .4-.2.8-.4 1.1-.3.3-.7.4-1.1.4h-122c-4.6 0-7.5 1.9-7.5 3.2 0 1.3 2.9 3.2 7.5 3.2h122c.8 0 1.5.7 1.5 1.5v165.2l.2 8z" fill="#000"/><path d="M552.999 114.401H1.5v248.2h551.499v-248.2z" fill="#3FD1FF"/><path d="M552.999 364.101H1.5c-.8 0-1.5-.7-1.5-1.5v-248.2c0-.8.7-1.5 1.5-1.5h551.499c.8 0 1.5.7 1.5 1.5v248.2c0 .8-.7 1.5-1.5 1.5zM3 361.101h548.499v-245.2H3v245.2z" fill="#000"/><path d="M1040.6 1.5H751.199v130.2H1040.6V1.5z" fill="#349948"/><path d="M1040.6 133.2H751.199c-.8 0-1.5-.7-1.5-1.5V1.5c0-.8.7-1.5 1.5-1.5H1040.6c.8 0 1.5.7 1.5 1.5v130.2c0 .8-.7 1.5-1.5 1.5zm-287.901-3H1039.1V3H752.699v127.2z" fill="#000"/><path d="M1040.5 173.401H751.098v130.2H1040.5v-130.2z" fill="#349948"/><path d="M1040.4 305.101H751c-.8 0-1.5-.7-1.5-1.5v-130.2c0-.8.7-1.5 1.5-1.5h289.4c.8 0 1.5.7 1.5 1.5v130.2c0 .8-.6 1.5-1.5 1.5zm-287.8-3h286.3v-127.2H752.5v127.2h.1z" fill="#000"/><path d="M1040.5 345H751.098v130.2H1040.5V345z" fill="#349948"/><path d="M1040.4 476.7H751c-.8 0-1.5-.7-1.5-1.5V345c0-.8.7-1.5 1.5-1.5h289.4c.8 0 1.5.7 1.5 1.5v130.2c0 .8-.6 1.5-1.5 1.5zm-287.8-3h286.3V346.5H752.5v127.2h.1z" fill="#000"/><path d="M468.4 230.1H66.5c-5 0-9-4-9-9s4-9 9-9h401.9c5 0 9 4 9 9s-4 9-9 9z" fill="#fff"/><path d="M468.4 231.6H66.5c-5.8 0-10.5-4.7-10.5-10.5s4.7-10.5 10.5-10.5h401.9c5.8 0 10.5 4.7 10.5 10.5s-4.7 10.5-10.5 10.5zm-401.9-18c-4.1 0-7.5 3.4-7.5 7.5s3.4 7.5 7.5 7.5h401.9c4.1 0 7.5-3.4 7.5-7.5s-3.4-7.5-7.5-7.5H66.5z" fill="#000"/><path d="M257.8 277.6H66.5c-5 0-9-4-9-9s4-9 9-9h191.3c5 0 9 4 9 9s-4 9-9 9z" fill="#fff"/><path d="M257.8 279.1H66.5c-5.8 0-10.5-4.7-10.5-10.5s4.7-10.5 10.5-10.5h191.3c5.8 0 10.5 4.7 10.5 10.5s-4.7 10.5-10.5 10.5zm-191.3-18c-4.1 0-7.5 3.4-7.5 7.5s3.4 7.5 7.5 7.5h191.3c4.1 0 7.5-3.4 7.5-7.5s-3.4-7.5-7.5-7.5H66.5z" fill="#000"/></svg>
